svgs/thin/hands.svg

<svg xmlns="http://www.w3.org/2000/svg" viewBox="0 0 512 512"><!--! Font Awesome Pro 6.3.0 by @fontawesome - https://fontawesome.com License - https://fontawesome.com/license (Commercial License) Copyright 2023 Fonticons, Inc. --><path d="M351.5 211L243.7 177.7C239.9 176.6 235.1 176 232 176c-17.63 0-33 11.3-38.27 28.18C189.8 216.9 192.6 230.1 199.9 240H72.9c-19.68 0-36.57 13.55-40.16 32.22c-2.168 11.28 .4746 22.76 7.262 31.79C20.71 304.4 4.275 317.8 .7402 336.2c-2.287 11.89 .7773 24.01 8.406 33.24C16.78 378.7 28.02 384 39.99 384c-3.588 4.682-6.092 10.18-7.254 16.22c-2.287 11.89 .7773 24.01 8.406 33.24C48.78 442.7 60.02 448 71.99 448c-3.588 4.682-6.092 10.18-7.254 16.22c-3.021 15.71 3.297 31.81 17.14 41.15C88.69 509.1 96.92 512 105.1 512H328c66.16 0 120-53.84 120-120l-.0059-48.03C447.1 283.7 409.4 230.3 351.5 211zM328 496H103.1c-14.81 0-26.49-13.42-23.54-28.76C82.64 455.8 93.29 448 104.9 448h95.1c4.418 0 8-3.582 8-8s-3.582-8-8-8h-128c-14.81 0-26.49-13.42-23.54-28.76C50.64 391.8 61.29 384 72.9 384h127.1c4.418 0 8-3.582 8-8s-3.582-8-8-8h-160c-14.81 0-26.49-13.42-23.54-28.76C18.64 327.8 29.29 320 40.9 320h159.1c4.418 0 8-3.582 8-8s-3.582-8-8-8h-128c-14.81 0-26.49-13.42-23.54-28.76C50.64 263.8 61.29 256 72.9 256h199.1L224.9 238.9C212.2 235 205.2 221.6 209.1 208.9c3.211-10.29 12.68-16.89 22.97-16.89c2.33-.002 4.703 .3379 7.057 1.047l107.7 33.25c51.16 17.06 85.19 64.28 85.19 117.7L432 392C432 449.3 385.3 496 328 496zM511.1 184.2c-.2891-21.87-18.59-39.65-41.01-39.65c-13.31 .0977-25.09 6.715-32.29 16.62l-38.25-121.1c-5.363-16.98-21.14-28.84-38.38-28.84c-1.469 0-2.953 .084-4.441 .2578c-11.41 1.328-21.56 7.307-28.13 16.5C323.9 11.46 308.3 0 291.4 0c-1.471 0-2.955 .084-4.441 .2578C269.9 2.244 255.6 14.64 251.1 32.62C250.7 39.06 251.3 45.76 253.2 52.06C249 50.52 244.6 49.79 240 49.79c-1.471 0-2.953 .084-4.441 .2578c-12.03 1.4-22.66 7.971-29.16 18.03C199.9 78.14 198.2 90.46 201.8 101.9C197.6 100.3 193.2 99.59 188.6 99.59c-1.471 0-2.953 .084-4.441 .2578C168.3 101.7 154.8 112.6 150.1 128.6C147.8 136.5 148.3 144.1 150.8 152.8l6.904 21.85c1.994 6.314 10.52 7.472 14.13 1.917c.0391-.0645-.041 .0625 0 0c1.32-2.02 1.811-4.569 1.084-6.87L165.7 146.8c-4.461-14.12 4.82-29.3 20.33-31.11c.8691-.1016 1.734-.1504 2.59-.1504c10.51-.002 19.89 7.428 23.12 17.66l1.936 6.129c1.158 3.668 4.865 6.006 8.666 5.42c.0547-.0078-.0527 .0078 0 0C227.2 144.1 230.4 139.3 228.9 134.6L217.1 97.05C212.6 82.94 221.9 67.75 237.4 65.94c.8691-.1016 1.732-.1504 2.59-.1504c10.51 0 19.89 7.43 23.12 17.66l21.99 69.96c.7891 2.508 2.758 4.467 5.27 5.242c6.156 1.9 11.92-3.893 9.982-10.04l-31.9-101.4c-4.461-14.12 4.82-29.3 20.33-31.11C289.7 16.05 290.5 16 291.4 16c10.51 0 19.89 7.43 23.12 17.66l44.61 141.2c1.045 3.305 4.098 5.561 7.564 5.59c5.434 .041 9.328-5.229 7.691-10.41l-35.24-111.6c-4.459-14.12 4.82-29.3 20.33-31.11c.8691-.1016 1.734-.1504 2.59-.1504c10.51-.002 19.89 7.428 23.12 17.66l59.98 189.8l2.082-50.04c-.0879-13.25 10.59-24.06 23.86-24.16c13.19 0 24.72 10.58 24.9 23.87v112.7c-.3301 20.58-5.77 39.96-15.06 57.05C480.3 355.3 480 356.6 480 357.8c0 8.189 10.94 10.98 14.88 3.807C505.5 342.3 511.6 320.4 512 297.1L511.1 184.2z"/></svg>

<svg xmlns="http://www.w3.org/2000/svg" viewBox="0 0 512 512"><!-- Font Awesome Pro 6.0.0-alpha2 by @fontawesome - https://fontawesome.com License - https://fontawesome.com/license (Commercial License) --><path d="M351.526 211.023L243.706 177.742C239.903 176.596 235.973 176.014 232.032 176.014C214.401 176.014 199.03 187.318 193.766 204.197C189.846 216.924 192.61 230.143 199.885 240H72.897C53.219 240 36.331 253.549 32.741 272.219C30.573 283.496 33.216 294.975 40.003 304.01C20.71 304.412 4.276 317.834 0.741 336.219C-1.546 348.109 1.518 360.225 9.147 369.461C16.78 378.701 28.022 384 39.995 384H40.04C36.452 388.682 33.903 394.182 32.741 400.219C30.454 412.109 33.518 424.225 41.147 433.461C48.78 442.701 60.022 448 71.995 448H72.04C68.452 452.682 65.903 458.182 64.741 464.219C61.719 479.928 68.038 496.027 81.882 505.365C88.692 509.959 96.921 512 105.137 512H328.001C394.157 512 448.001 458.156 448.001 392L447.995 343.969C447.995 283.693 409.364 230.311 351.526 211.023ZM328.001 496H103.995C89.188 496 77.507 482.578 80.454 467.242C82.645 455.844 93.29 448 104.897 448H199.995C204.413 448 207.995 444.418 207.995 440S204.413 432 199.995 432H71.995C57.188 432 45.507 418.578 48.454 403.242C50.645 391.844 61.29 384 72.897 384H199.995C204.413 384 207.995 380.418 207.995 376S204.413 368 199.995 368H39.995C25.188 368 13.507 354.578 16.454 339.242C18.645 327.844 29.29 320 40.897 320H199.995C204.413 320 207.995 316.418 207.995 312S204.413 304 199.995 304H71.995C57.188 304 45.507 290.578 48.454 275.242C50.645 263.844 61.29 256 72.897 256H271.995L224.901 238.938C212.245 235.031 205.151 221.594 209.057 208.906C212.268 198.611 221.733 192.016 232.032 192.016C234.362 192.014 236.735 192.354 239.089 193.062L346.807 226.312C397.964 243.375 431.995 290.594 431.995 343.969L432.001 392C432.001 449.344 385.344 496 328.001 496ZM511.999 184.199C511.71 162.334 493.403 144.545 470.985 144.545C457.671 144.643 445.899 151.26 438.69 161.164L400.436 40.076C395.073 23.094 379.292 11.232 362.059 11.234C360.591 11.234 359.106 11.318 357.618 11.492C346.212 12.82 336.059 18.799 329.491 27.994C323.876 11.465 308.335 0 291.393 0C289.923 0 288.438 0.084 286.952 0.258C269.889 2.244 255.637 14.639 251.981 32.623C250.671 39.064 251.341 45.762 253.21 52.064L253.241 52.17C249.044 50.627 244.575 49.793 240.005 49.793C238.534 49.793 237.051 49.877 235.563 50.051C223.538 51.451 212.907 58.021 206.399 68.076C199.887 78.139 198.219 90.455 201.827 101.875L201.854 101.961C197.655 100.42 193.186 99.586 188.618 99.586C187.147 99.586 185.665 99.67 184.177 99.844C168.278 101.695 154.819 112.582 150.098 128.609C147.778 136.494 148.317 144.957 150.794 152.795L157.698 174.646C159.692 180.961 168.161 182.213 171.768 176.658C171.807 176.594 171.848 176.531 171.889 176.469C173.21 174.449 173.639 171.994 172.913 169.693L165.696 146.848C161.235 132.729 170.516 117.543 186.028 115.736C186.897 115.635 187.762 115.586 188.618 115.586C199.128 115.584 208.505 123.014 211.739 133.248L213.675 139.377C214.833 143.045 218.46 145.395 222.26 144.809C222.315 144.801 222.368 144.793 222.421 144.785C227.288 144.045 230.423 139.279 228.94 134.584L217.083 97.055C212.624 82.936 221.903 67.75 237.415 65.943C238.284 65.842 239.147 65.793 240.005 65.793C250.514 65.793 259.893 73.223 263.126 83.455L285.12 153.42C285.909 155.928 287.878 157.887 290.389 158.662C296.546 160.563 302.307 154.77 300.372 148.623L268.471 47.262C264.01 33.143 273.292 17.957 288.803 16.15C289.673 16.049 290.536 16 291.393 16C301.901 16 311.28 23.43 314.512 33.662L359.124 174.875C360.169 178.18 363.221 180.436 366.688 180.465C372.122 180.506 376.016 175.236 374.38 170.055L339.137 58.496C334.678 44.377 343.958 29.191 359.469 27.385C360.339 27.283 361.204 27.234 362.059 27.234C372.569 27.232 381.948 34.662 385.18 44.896L445.157 234.746L447.239 184.701C447.151 171.455 457.829 160.643 471.102 160.545H471.19C484.378 160.545 495.825 171.123 496.001 184.41V297.141C495.671 317.721 490.231 337.102 480.942 354.187C480.333 355.312 480.001 356.559 480.001 357.838C480.001 366.027 490.94 368.818 494.885 361.645C505.54 342.271 511.632 320.361 512.001 297.141L511.999 184.199Z"/></svg>
